X:1
T:Lord Randal
M:3/4
L:1/4
K:G
 D| G G G| G A B| G D F| G2 D| B B B| B A B| d B A/2A/2| G A B| A2 B|\
 B B B| B- A G/2G/2| A G E| D2 D/2D/2| G G e| d B G| B B A| G2||
